!!!!SEGMENT: pl-sa--554-a-ix-34--015_anonim-aria.krn
!!!id: 18xx:578
!!!COM: Anonim
!!!OTL: Aria
!!!PDT:
!!!SMS-siglum: PL-SA
!!!SMS-shelfmark: 554/A IX 34
!!!NIFC-rismID: 1001069910
!!!URL-scan: http://bc.bdsandomierz.pl/dlibra/publication/1310/edition/1278/content
!!!ONB-nifc: Str. 14 (ost. system)
!!!SMS-variant:
!!!SMS-altvar:
**kern	**kern
*part2	*part1
*staff2	*staff1
*	*I"Keyboard
*	*I'keyb
*clefF4	*clefG2
*k[]	*k[]
*M6/8	*M6/8
!	!LO:SIC:o:s:=:v: metrum z kreską "ułamkową"6/8
!	!LO:TX:rj:a:t=Aria
8r	8g\
=1	=1
8C\L	4cc\
8E\	.
8G\J	8cc\
*rep	*
8C\L	8ee/L
8E\	8cc/
8G\J	8g/J
*Xrep	*
=2	=2
8D\L	4ff\
8F\	.
8G\J	8dd\
*rep	*
8D\L	4b\
8F\	.
8G\J	8g/
*Xrep	*
=3	=3
8C\L	4cc\
8E\	.
8G\J	8cc\
*rep	*
8C\L	8cc\L
8E\	8dd\
8G\J	8ee\J
*Xrep	*
=4	=4
*rep	*
8C\L	4.ee\ 4.cc\
8E\	.
8G\J	.
*Xrep	*
8BB\L	4dd\ 4b\
8D\	.
8G\J	8g/
=5	=5
8C\L	4cc\
8E\	.
8G\J	8cc\
*rep	*
8C\L	8ee/L
8E\	8cc/
8G\J	8g/J
*Xrep	*
=6	=6
8D\L	4ff\
8F\	.
8G\J	8dd\
*rep	*
8D\L	4b\
8F\	.
8G\J	8g/
*Xrep	*
=7	=7
*rep	*
8D\L	4dd\
8F\	.
8G\J	8dd\
*Xrep	*
*rep	*
8D\L	8ff\L
8F\	8dd\
8A\J	8b\J
*Xrep	*
=8	=8
*rep	*
8D\L	4.dd\
8F\	.
8G\J	.
*Xrep	*
4C\	4cc\
=9||	=9||
8BB\L	8b\L
8D\	8dd\
8G\J	8ff\J
*rep	*
8BB\L	8b\L
8D\	8dd\
8G\J	8ff\J
*Xrep	*
=10	=10
8C\L	4.cc\
8E\	.
8G\J	.
*rep	*
8C\L	4ee\
8E\	.
8G\J	8cc\
*Xrep	*
=11	=11
8BB\L	8b\L
8D\	8dd\
8G\J	8ff\J
*rep	*
8BB\L	8b\L
8D\	8dd\
8G\J	8ff\J
*Xrep	*
=12	=12
8C\L	4.dd#X\
8E\	.
8G\J	.
*rep	*
8C\L	4ee\
8E\	.
8G\J	8g/
*Xrep	*
=13	=13
*rep	*
8C\L	4cc\
8E\	.
8G\J	8cc\
*Xrep	*
*rep	*
8C\L	8ee\L
8E\	8cc\
8G\J	8g\J
*Xrep	*
=14	=14
8D\L	4ff\
8F\	.
8G\J	8dd\
*rep	*
8D\L	4b\
8F\	.
8G\J	8g/
*Xrep	*
=15	=15
*rep	*
8D\L	4dd\
8F\	.
8G\J	8dd\
*Xrep	*
*rep	*
8D\L	8ff\L
8F\	8dd\
8G\J	8b\J
*Xrep	*
=16	=16
8D\L	4.dd\
8F\	.
8G\J	.
4C\	4cc\
8r	8r
==	==
*-	*-
!!!system-decoration: [(s1,s2)]
!!!ENC: Marta Chmielewska
!!!END: 2020-06-18
!!!EED: Leszek Kubiak
!!!EST: 2020-12-14
